assets/images/icons/src/file-text.svg

<?xml version="1.0" encoding="utf-8"?>
<!-- Generated by IcoMoon.io -->
<!DOCTYPE svg PUBLIC "-//W3C//DTD SVG 1.1//EN" "http://www.w3.org/Graphics/SVG/1.1/DTD/svg11.dtd">
<svg version="1.1" xmlns="http://www.w3.org/2000/svg" xmlns:xlink="http://www.w3.org/1999/xlink" width="12" height="14" viewBox="0 0 12 14">
<path fill="#444444" d="M11.469 3.719q0.109 0.109 0.219 0.281h-3.687v-3.687q0.172 0.109 0.281 0.219zM7.75 5h4.25v8.25q0 0.312-0.219 0.531t-0.531 0.219h-10.5q-0.312 0-0.531-0.219t-0.219-0.531v-12.5q0-0.312 0.219-0.531t0.531-0.219h6.25v4.25q0 0.312 0.219 0.531t0.531 0.219zM9 10.75v-0.5q0-0.109-0.070-0.18t-0.18-0.070h-5.5q-0.109 0-0.18 0.070t-0.070 0.18v0.5q0 0.109 0.070 0.18t0.18 0.070h5.5q0.109 0 0.18-0.070t0.070-0.18zM9 8.75v-0.5q0-0.109-0.070-0.18t-0.18-0.070h-5.5q-0.109 0-0.18 0.070t-0.070 0.18v0.5q0 0.109 0.070 0.18t0.18 0.070h5.5q0.109 0 0.18-0.070t0.070-0.18zM9 6.75v-0.5q0-0.109-0.070-0.18t-0.18-0.070h-5.5q-0.109 0-0.18 0.070t-0.070 0.18v0.5q0 0.109 0.070 0.18t0.18 0.070h5.5q0.109 0 0.18-0.070t0.070-0.18z"></path>
</svg>

<svg xmlns="http://www.w3.org/2000/svg" width="12" height="14" viewBox="0 0 12 14"><path fill="#444" d="M11.469 3.719q.109.109.219.281H8.001V.313q.172.109.281.219zM7.75 5H12v8.25q0 .312-.219.531T11.25 14H.75q-.312 0-.531-.219T0 13.25V.75Q0 .438.219.219T.75 0H7v4.25q0 .312.219.531T7.75 5zM9 10.75v-.5q0-.109-.07-.18T8.75 10h-5.5q-.109 0-.18.07t-.07.18v.5q0 .109.07.18t.18.07h5.5q.109 0 .18-.07t.07-.18zm0-2v-.5q0-.109-.07-.18T8.75 8h-5.5q-.109 0-.18.07T3 8.25v.5q0 .109.07.18t.18.07h5.5q.109 0 .18-.07T9 8.75zm0-2v-.5q0-.109-.07-.18T8.75 6h-5.5q-.109 0-.18.07T3 6.25v.5q0 .109.07.18t.18.07h5.5q.109 0 .18-.07T9 6.75z"/></svg>
